assets/icons/x.svg

<svg xml:space="preserve" fill="#ebebeb" style="fill-rule:evenodd;clip-rule:evenodd;stroke-linejoin:round;stroke-miterlimit:2" viewBox="0 0 20 20" xmlns="http://www.w3.org/2000/svg"><path d="M7.273 2.8 10.8 7.822 15.218 2.8h1.768l-5.4 6.139 5.799 8.254h-4.658l-3.73-5.31-4.671 5.31H2.558l5.654-6.427L2.615 2.8zm6.242 13.125L5.07 4.109h1.405l8.446 11.816z" style="fill:#fff"/></svg>

<?xml version="1.0" encoding="UTF-8" standalone="no"?>
<!DOCTYPE svg PUBLIC "-//W3C//DTD SVG 1.1//EN" "http://www.w3.org/Graphics/SVG/1.1/DTD/svg11.dtd">
<svg width="100%" height="100%" viewBox="0 0 20 20" version="1.1" xmlns="http://www.w3.org/2000/svg" xmlns:xlink="http://www.w3.org/1999/xlink" xml:space="preserve" xmlns:serif="http://www.serif.com/" style="fill-rule:evenodd;clip-rule:evenodd;stroke-linejoin:round;stroke-miterlimit:2;">
    <path d="M7.273,2.8L10.8,7.822L15.218,2.8L16.986,2.8L11.586,8.939L17.385,17.193L12.727,17.193L8.997,11.883L4.326,17.193L2.558,17.193L8.212,10.766L2.615,2.8L7.273,2.8ZM13.515,15.925L5.07,4.109L6.475,4.109L14.921,15.925L13.515,15.925Z" style="fill:white;"/>
</svg>
